dist/icons/svgs/user-minus-solid.svg

<svg xmlns="http://www.w3.org/2000/svg" width="24" height="24" fill="currentcolor" class="icon-user-minus-solid" viewBox="0 0 24 24">
  <path d="M3.75 7C3.75 5.24219 4.6875 3.60156 6.25 2.70312C7.77344 1.80469 9.6875 1.80469 11.25 2.70312C12.7734 3.60156 13.75 5.24219 13.75 7C13.75 8.79688 12.7734 10.4375 11.25 11.3359C9.6875 12.2344 7.77344 12.2344 6.25 11.3359C4.6875 10.4375 3.75 8.79688 3.75 7ZM0 20.8672C0 17 3.08594 13.875 6.95312 13.875H10.5078C14.375 13.875 17.5 17 17.5 20.8672C17.5 21.4922 16.9531 22 16.3281 22H1.13281C0.507812 22 0 21.4922 0 20.8672ZM18.4375 9.8125H24.0625C24.5703 9.8125 25 10.2422 25 10.75C25 11.2969 24.5703 11.6875 24.0625 11.6875H18.4375C17.8906 11.6875 17.5 11.2969 17.5 10.75C17.5 10.2422 17.8906 9.8125 18.4375 9.8125Z"/>
</svg>

<svg xmlns="http://www.w3.org/2000/svg" width="24" height="24" fill="currentColor" class="icon-user-minus-solid" viewBox="0 0 24 24">
  <path d="M3.75 7c0-1.758.938-3.398 2.5-4.297 1.523-.898 3.438-.898 5 0 1.523.899 2.5 2.54 2.5 4.297 0 1.797-.977 3.438-2.5 4.336-1.562.898-3.477.898-5 0A4.97 4.97 0 0 1 3.75 7M0 20.867C0 17 3.086 13.875 6.953 13.875h3.555a6.985 6.985 0 0 1 6.992 6.992c0 .625-.547 1.133-1.172 1.133H1.133A1.134 1.134 0 0 1 0 20.867M18.438 9.813h5.625a.95.95 0 0 1 .937.937c0 .547-.43.938-.937.938h-5.625c-.547 0-.938-.391-.938-.938 0-.508.39-.937.938-.937"/>
</svg>
